X:17304
T:The Trippers
A:Cape Breton
S:Sandy MacIntyre
R:Jig
M:6/8
L:1/8
K:GLyd
ABd ue2uA | g2d e2A | ABd ue2uf | vg2(ue d)vBuG|
ABd ue2uA | egd ue2uA | BAB GBd | vg2 (ue d)BG :|
ABA a3 | gfe a3 | ABA ua2uf | g2 (ue d)BG |
ABA a3 | gfe a3 | vg2 (ue d)Bd | ege dBG :|
ABA uc2uA | d2B c2A | ABA uc2uA | vd2(vc B)AG |
ABA uc2uA | d2B c2A | BAB GBd | vg2 (ue d)BG :|
ABA a3 | gfe a3 | ABA ua2uf | g2 (ue d)BG |
ABA a3 | gfe a3 | vg2 (ue d)Bd | ege dBG :|
